X:1
T:Sonata No. 1 in E minor
T:Sonata No. 1 in E minor
T: for flute and piano
T:Francois Devienne
C:Francois Devienne
%%score { ( 1 3 ) | 2 }
L:1/8
Q:1/4=90
M:4/4
K:G
V:1 treble nm="Piano" snm="Pno."
V:3 treble 
V:2 bass 
V:1
"^Allegro" z2 z2 z2 z2 | z [GB][GB][GB] z [FA][FA][FA] | z [EG][EG][EG] z [EG][EG][EG] | %3
 z [Ac][Ac][Ac] z [FA][FA][FA] | z [EA] z [FB] z [GB] z [Be] | z [A^d] z [Be] z [Ad] z [Be] | %6
 z [Ac][Ac][Ac] z [FA][FA][FA] | z [EG][EG][EG] [EG][EG][EB][EB] | [EGB-]4 [^DFB]2 z2 | %9
 z [G,B,][G,B,][G,B,] z [A,^D][A,D][A,D] | z [B,E][B,E][B,E] z [^DE][DE][DE] | %11
 z [CE][CE][CE] z [FA][FA][FA] | z [EA] z [FB] z [GB] z [Be] | z [A^d] z [Gc] z [FB] z [G^A] | %14
 z [^D=A] z [Ec] z [FB] z [FA] | z [EG] z [EG] z [EF] z [^DF] | ([^DA]4 [EG]2) z2 | [^DFA]8 | %18
 z [EG] z [EB] z [EG] z [EB] | [^DFA]8 | z [EG] z [EB] z [EG] z [Be] | %21
 z [A=d][Ad][Ad] z [Fc][Fc][Fc] | [GB][CF][DG][EA] [FB][Gc][Ad][Be] | %23
 [cf][dg][ea][fb] [gc'][fb][ea][eg] | [df]2 [DFd]2 z4 | z2 [GB]2 z2 [DA]2 | cBed FG z G- | %27
 G G2 F EDCB, | (G4 F2) z2 | z2 [Bg]2 z2 [Ad]2 | cBed fgba | gefe AcBc | dBcd ecAG | %33
 z [Bdg][Bdg][Bdg] z [cdf][cdf][cdf] | [GBg][gb][fa][eg] [df][ce][Bd][Ac] | %35
 [GB][Bg] z [Ge] z [Gd] z [Fc] | [GB][GB][FA][EG] [DF][CE][B,D][A,C] | %37
 [G,B,][B,G] z [EG] z [DG] z [CF] | [B,G]2 z2 z4 | [DFc]2 z2 z4 | [DGB]2 z2 z4 | %41
 [FAc][FAc][FAc][FAc] [DAc][DAc][DAc][DAc] | [DGB]2 z2 z4 | %43
 [DGB][DGB][DGB][DGB] [DFc][DFc][DFc][DFc] | [DGB]2 [GBd]2 [FAc]2 [DAc]2 | %45
 [DGB]2 [GBd]2 [FAc]2 [DAc]2 | [DGB]2 z2 [G,B,G]2 z2 | [Gce][Gce][Gce][Gce] [Gce][Gce][Gce][Gce] | %48
 [GBd][GBd][GBd][GBd] [cdf][cdf][cdf][cdf] | [Bdg]2 z2 z4 | z Ggf edcB | AGFG ABcd | %52
 e2 [Ac]2 [FA]2 [Fd]2 | [GB]2 [GB]2 [GB]2 z2 | z Ggf edcB | AGFG ABcd | e2 [Ac]2 [FA]2 [Fd]2 | %57
 B2 g2 g || z z2 | z2 [B,D][B,D] z [CF][CF][CF] | z [DG][DG][DG] z [Gd][Gd][Gd] | %61
 z [EA][EA][EA] z [FB][FB][FB] | z [Gc][Gc][Gc] [Gc][FB][EA][DG] | z [CF] z [CF] z [CF] z [CF] | %64
 z [B,G] z [DG] z [EG] z [EG] | z [DG] z [GB] z [Bd] z [CF] | [B,G]2 [GB]2 B2 z2 | %67
 z [B,D][B,D][B,D] z [CF][CF][CF] | z [DG][DG][DG] z [Bd][Bd][Bd] | %69
 z [^GB][GB][GB] [d=f][df] z [Ac] | z [^GB] z [GB] z [GB] z [ce] | z [Bd] z [Bd] z [Bd] z [Bd] | %72
 z [Ac] z [Ge] z [=Fd] z [^FA] | z [E^G] z [Bd] z [Ac] z [CFA] | [B,E^G]2 [^G,B,E]2 z4 | %75
 z [ce][ce][ce] [ce][ce][ce][ce] | z [d=f] z [df] z [df] z [df] | z [ce][ce][ce] [ce][ce][ce][ce] | %78
 z [d=f] z [df] z [df] z [df] | z [ce][ce][ce] z [^ce][ce][ce] | z [d=f][df][df] z [df][df][df] | %81
 z [d=f][df][df] z [df][df][df] | z [ce][ce][ce] z [ce][ce][ce] | z [cd][cd][cd] z [cd][cd][cd] | %84
 [Bd]2 [GBg]2 G2 z2 | [Gce]4 [ca][Bg][A=f][Ge] | [Ace]6 z2 | [=FBd]4 [Bg][A=f][Ge][^F^d] | %88
 [=FB=d]6 z [GB=f] | z [Gce] z [=FB] z [Gc] z [GA] | z [^FA] z [Ad] z [=FG] z [FB] | %91
 z [Ec] z [=FB] z [Gc] z [Ad] | [Bd]2 [GBg]2 G2 z [GBg] | [Gce]4 [ca][Bg][A=f][Ge] | %94
 [Gce]4 z2 [eg]2 | [eg]2 [^ce]2 [eg]2 [ce]2 | [d^f]2 [Ad]2 [df]2 [Ad]2 | [d=f]2 [Bd]2 [df]2 [Bd]2 | %98
 [ce]2 [Gc]2 [ce]2 [Gc]2 | z2 [Ge]2 [Ge]2 [Ge]2 | z2 [Ge]2 [Ge]2 [Ge]2 | z2 [Ge]2 z2 [Ge]2 | %102
 z2 [GB]2 z4 | [FB]4 z4 | z [EG][EA][EB] z [^Dc][DB][DA] | z [B,B][B,G][B,E] z [Ee][E=d][EB] | %106
 z [Ac] z [FA] z [^DF] z [EG] | z [^DA][EA][FA] z [EG] z [Ge] | z [A^d] z [B=d] z [E^c] z [A=c] | %109
 z [FB] z [GB] z [EA] z [FA] | z [EG] z [EF] z [EG] z [^DF] | E2 z2 z4 | %112
 z [^DA][DA][DA] z [B,F][B,F][B,F] | [EG]2 z2 z4 | z [^DA][DA][DA] z [B,F][B,F][B,F] | %115
 [EG][FA][G^A][^GB] [=Ac][Bd][c^d][^ce] | [=df][eg][fa][ac'] [gb][cf][dg][A^d] | %117
 [Ge][Bd][Ac][Bd] [Ac][GB][FA][EG] | [^DF]2 z z [FA][FA][FA][FA] | [EG]2 z2 z4 | z8 | %121
 [EGB][EGB][EGB][EGB] [AB^d][ABd][ABd][ABd] | [GBe]2 z2 z4 | z EGF EdcB | e2 [EAc]2 z2 [EAc]2 | %125
 B2 G2 A2 F2 | [EG]2 [EG]2 [EG]2 z2 | z2 GF EdcA | E2 [EAc]2 z2 [EAc]2 | BGBG [AB]F[AB]F | %130
[Q:1/4=85] [EG]2[Q:1/4=80] [GBe]2 [GBe] |] %131
V:2
 E,2 E,2 E,2 E,2 | E,4 B,,4 | C,4 G,,4 | A,,4 B,,4 | ^C,2 ^D,2 E,2 (G,2 | F,2) (G,2 F,2) G,2 | %6
 (A,G,)F,E, ^D,2 D,2 | E,2 z2 z2 E,,2 | B,,(^A,B,A, B,=A,G,F,) | E,4 F,4 | G,4 ^G,4 | A,4 B,4 | %12
 ^C2 ^D2 E2 G,2 | F,2 E,2 ^D,2 E,2 | F,2 E,2 ^D,2 D,2 | E,2 G,2 B,2 B,,2 | E,2 B,2 E,2 z2 | B,,8 | %18
 E,2 G,2 E,2 G,2 | B,8 | E,2 G,2 E,2 G,2 | F,4 D,4 | G,,A,,B,,C, D,E,F,G, | A,B,CD EDC^C | %24
 D2 B,,2 z4 | G,4 F,4 | E,D,C,B,, A,,G,,C,B,, | E,3 D, C,B,,A,,G,, | D,,2 D,2 D,,2 z2 | G,4 F,4 | %30
 E,D,C,B,, A,,G,,G,F, | E,G,A,G, F,4 | G,G,,A,,B,, C,2 C2 | B,2 G,B, D2 D,2 | %34
 G,,G,F,E, D,C,B,,A,, | G,,2 C,2 B,,2 A,,2 | G,,G,F,E, D,C,B,,A,, | G,,2 C2 B,2 A,2 | G,2 z2 z4 | %39
 D,2 z2 z4 | G,2 z2 z4 | A,A,A,A, F,F,F,F, | G,2 z2 z4 | D,D,D,D, D,,D,,D,,D,, | G,4 A,2 F,2 | %45
 G,4 A,2 F,2 | G,2 z2 G,,2 z2 | C,C,C,C, C,C,C,C, | D,D,D,D, D,,D,,D,,D,, | G,,B,,D,F, G, z z2 | %50
 z E,ED CB,A,G, | F,E,D,E, F,G,A,B, | CCCC DDDD | G,B,DC B,2 z2 | z E,ED CB,A,G, | %55
 F,E,D,E, F,G,A,B, | CCCC DDDD | G,2 G,,2 G,, || z z2 | G,4 A,4 | B,4 B,,4 | C,4 D,4 | %62
 E,2 E,,2 E,D,C,B,, | A,,2 A,,2 D,2 D,2 | G,,2 B,,2 C,2 C,2 | B,,2 G,,2 D,2 D,,2 | %66
 G,,2 G,2 G,,2 z2 | G,4 A,4 | B,G,D,B,, G,,2 G,,B,, | D,2 D,4 ^D,2 | E,2 E,,2 E,2 ^F,2 | %71
 ^G,2 G,2 G,2 G,2 | A,2 (^C,2 D,2) (^D,2 | E,2) ^G,2 A,2 A,,2 | E,2 E,,2 z4 | A,8 | %76
 ^G,2 G,A, B,2 G,2 | A,8 | ^G,2 G,A, B,2 G,2 | A,4 =G,4 | =F,4 D,4 | G,4 B,4 | C4 E,4 | %83
 =F,2 F,2 F,2 F,2 | G,2 G,,2 G,,2 z2 | C,C,C,C, C,C,C,C, | C,C,C,C, C,C,C,C, | D,D,D,D, D,D,D,D, | %88
 G,,G,,G,,G,, G,=F,E,D, | C,2 D,2 E,2 ^C,2 | D,2 =C,2 B,,2 D,2 | C,2 D,2 E,2 =F,2 | %92
 G,^F,G,F, G,=F,E,D, | C,C,C,C, C,C,C,C, | C,E,G,C E2 D2 | ^C2 C2 C2 C2 | D2 D,2 D2 =C2 | %97
 B,2 B,2 B,2 B,2 | CC,E,G, C z z2 | (C8 | B,8 | ^A,8 | B,4) z4 | B,4 E,2 E,2 | z E,F,G, A,4 | %105
 G,G,G,G, ^G,G,G,G, | A,2 CA, F,2 E,2 | ^D,B,,^C,D, E,2 E,2 | F,2 ^G,2 A,2 F,2 | %109
 ^D,2 E,2 ^C,2 D,2 | E,2 A,2 B,2 B,,2 | E,2 z2 z4 | F,4 ^D,4 | E,2 z2 z4 | F,4 ^D,4 | %115
 E,F,G,^G, A,B,C^C | DEFF, G,A,B,B, | CDEE, F,G,A,^A, | B,2 z2 (^D,4 | E,2) z2 z4 | z8 | %121
 B,B,B,B, B,,B,,B,,B,, | E,G,B,A, G, z z2 | z G,B,A, G,F,E,D, | C,E,A,E, C,CB,A, | %125
 G,2 E,2 B,2 B,,2 | E,G,B,A, G, z z2 | z G,B,A, G,F,E,D, | C,E,A,E, C,CB,A, | G,2 E,G, B,B,B,,B,, | %130
 E,2 E,,2 E,, |] %131
V:3
 x8 | x8 | x8 | x8 | x8 | x8 | x8 | x8 | x8 | x8 | x8 | x8 | x8 | x8 | x8 | x8 | x8 | x8 | x8 | %19
 x8 | x8 | x8 | x8 | x8 | x8 | x8 | x8 | x8 | z2 D2 D2 z2 | x8 | x8 | x8 | x8 | x8 | x8 | x8 | x8 | %37
 x8 | x8 | x8 | x8 | x8 | x8 | x8 | x8 | x8 | x8 | x8 | x8 | x8 | x8 | x8 | x8 | x8 | x8 | x8 | %56
 x8 | x5 || x3 | x8 | x8 | x8 | x8 | x8 | x8 | x8 | x8 | x8 | x8 | x8 | x8 | x8 | x8 | x8 | x8 | %75
 x8 | x8 | x8 | x8 | x8 | x8 | x8 | x8 | x8 | x8 | x8 | x8 | x8 | x8 | x8 | x8 | x8 | x8 | x8 | %94
 x8 | x8 | x8 | x8 | x8 | x8 | x8 | x8 | x8 | x8 | x8 | x8 | x8 | x8 | x8 | x8 | x8 | x8 | x8 | %113
 x8 | x8 | x8 | x8 | x8 | x8 | x8 | x8 | x8 | x8 | x8 | x8 | E4 ^D4 | x8 | x8 | x8 | %129
 E2 B,2 ^D2 B,2 | x5 |] %131

